X:1
T:The Moment It Is Done
T:The Moment It Is Done
T:Robert Harkness
T:W. A. Bradley, 1908
T:Public Domain Courtesy of the Cyber Hymnal™
C:Robert Harkness
Z:Public Domain
Z:Courtesy of the Cyber Hymnal™
%%score ( 1 2 ) ( 3 4 )
L:1/8
Q:1/4=110
M:4/4
K:C
V:1 treble 
V:2 treble 
V:3 bass 
V:4 bass 
V:1
 (CE) | [EG]2 [EG]2 [FA]2 [FA]2 | [EG]2 [CE]2 [EG]2 [Gc]2 | [GB]2 [FA]2 [EG]2 [DF]2 | [CE]6 (CE) | %5
w: 1.~O *|sin- ner, leave the|dark- ened path, For|God has found a|way Where *|
w: 2.~How *|long will you re-|ject His love, And|scorn His grace di-|vine? Your *|
w: 3.~Each *|mo- ment as it|pass- es by, With|vast re- sults is|fraught; You *|
w: 4.~Be- *|lieve His word, your|sins for- sake, And|take th’e- ter- nal|prize; Come *|
 [EG]2 [EG]2 [FA]2 [FA]2 | [EG]2 [CE]2 [EG]2 [Gc]2 | [Fc]2 [FB]2 [FA]2 [FB]2 | [Ec]6 || %9
w: all the lost may|safe- ly come, To|Heav’n’s e- ter- nal|day.|
w: Sav- ior died to|gain for you The|gift you now de-|cline.|
w: may ac- cept, you|may re- ject, The|king- dom for you|bought.|
w: now, sur- ren- der|at His feet, Ac-|cept His sac- ri-|fice.|
"^Refrain" (CE) | [EG]2 [EG]2 [FA]2 [FA]2 | [EG]6 [CE][EG] | [Ec]2 [Ec]2 [Fd]2 [Fd]2 | %13
w: ||||
w: ||||
w: ||||
w: ||||
 [Ec]6 [EG]2 | [EG]2 [DF]2 [DF]2 [FA]2 | [FA]2 [EG]2 [EG]2 [Ec]2 | [Ec]2 [FB]2 [FB]2 [Fd]2 | %17
w: ||||
w: ||||
w: ||||
w: ||||
 [Fd]2 [Ec]2 [Ec]2 [EG]2 | [FA]2 [Fc]2 [Ec]2 [DB]2 | [Ec]6 |] %20
w: |||
w: |||
w: |||
w: |||
V:2
 C2 | x8 | x8 | x8 | x6 C2 | x8 | x8 | x8 | x6 || C2 | x8 | x8 | x8 | x8 | x8 | x8 | x8 | x8 | x8 | %19
 x6 |] %20
V:3
 (E,G,) | [C,C]2 [C,C]2 [C,C]2 [C,C]2 | [C,C]2 [C,G,]2 [C,C]2 [E,C]2 | [F,C]2 [F,C]2 [G,C]2 G,2 | %4
w: ~ *|~ ~ ~ ~|~ ~ ~ ~|~ ~ ~ ~|
 [C,C]6 (E,G,) | [C,C]2 [C,C]2 [C,C]2 [C,C]2 | [C,C]2 [C,G,]2 [C,C]2 [E,C]2 | %7
w: ~ ~ *|~ ~ ~ ~|~ ~ ~ ~|
 [G,D]2 [G,D]2 [G,C]2 [G,D]2 | [C,C]6 || (E,G,) | [C,C]2 [C,C]2 [C,C]2 [C,C]2 | %11
w: ~ ~ ~ ~|~|For *|God so loved the|
 [C,C]6 [C,G,][C,C] | G,2 G,2 [G,B,]2 G,2 | [C,G,]6 [C,C]2 | [G,C]2 [G,B,]2 [G,B,]2 G,2 | %15
w: world, That He|gave His on- ly|Son, That|who- so- e’er on|
 [C,C]2 [C,C]2 [C,C]2 [C,G,]2 | G,2 G,2 G,2 [G,B,]2 | [C,G,]2 [C,G,]2 [C,G,]2 [C,C]2 | %18
w: Him be- lieves, E-|ter- nal life at|once re- ceives The|
 [F,C]2 [F,A,]2 G,2 [G,,G,]2 | [C,G,]6 |] %20
w: mo- ment it is|done.|
V:4
 C,2 | x8 | x8 | x6 G,2 | x6 C,2 | x8 | x8 | x8 | x6 || C,2 | x8 | x8 | G,2 G,2 G,2 x2 | x8 | %14
 x6 G,2 | x8 | G,2 G,2 G,2 x2 | x8 | x4 G,2 x2 | x6 |] %20

